gama.ui.shared/icons_svg/light/editor/command.format.svg

<svg height="25" viewBox="-115.383 -3675.743 25 25" width="25" xmlns="http://www.w3.org/2000/svg"><g fill="none"><path d="m-111.04302-3675.243h16.32c2.12078 0 3.84 1.7194 3.84 3.84v16.32c0 2.121-1.71922 3.84-3.84 3.84h-16.32c-2.12077 0-3.84-1.719-3.84-3.84v-16.32c0-2.1206 1.71923-3.84 3.84-3.84z" fill="#fff"/><path d="m-111.04302-3675.243h16.32c2.12078 0 3.84 1.7194 3.84 3.84v16.32c0 2.121-1.71922 3.84-3.84 3.84h-16.32c-2.12077 0-3.84-1.719-3.84-3.84v-16.32c0-2.1206 1.71923-3.84 3.84-3.84z" stroke="#000" stroke-linecap="round" stroke-linejoin="round" stroke-width=".25"/><path d="m-110.4386-3668.1317c-.24889 0-.44445-.1956-.44445-.4443 0-.249.19556-.4446.44445-.4446h15.11117c.24889 0 .44444.1956.44444.4446 0 .2487-.19555.4443-.44444.4443zm6.22224 3.5557c-.24889 0-.44444-.1957-.44444-.4446s.19555-.4444.44444-.4444h8.88893c.24889 0 .44444.1955.44444.4444s-.19555.4446-.44444.4446zm0 3.5554c-.24889 0-.44444-.1954-.44444-.4444s.19555-.4445.44444-.4445h8.88893c.24889 0 .44444.1955.44444.4445s-.19555.4444-.44444.4444zm-6.22224 3.5556c-.24889 0-.44445-.1956-.44445-.4444 0-.2489.19556-.4446.44445-.4446h15.11117c.24889 0 .44444.1957.44444.4446 0 .2488-.19555.4444-.44444.4444zm-.44445-8.4445c0-.3645.41778-.5778.71112-.3555l3.55556 2.6666c.24001.1778.24001.5334 0 .7112l-3.55556 2.6666c-.29334.2223-.71112.0089-.71112-.3554zm.88889.8889v3.5556l2.37335-1.778z" fill="#5c75a0"/></g></svg>

<?xml version="1.0" encoding="UTF-8" standalone="no"?>
<!DOCTYPE svg PUBLIC "-//W3C//DTD SVG 1.1//EN" "http://www.w3.org/Graphics/SVG/1.1/DTD/svg11.dtd">
<svg xmlns:dc="http://purl.org/dc/elements/1.1/" xmlns:xl="http://www.w3.org/1999/xlink" version="1.1" xmlns="http://www.w3.org/2000/svg" viewBox="-115.38302 -3675.743 25 25" width="25" height="25">
  <defs/>
  <g id="SOURCES" stroke-dasharray="none" stroke="none" stroke-opacity="1" fill="none" fill-opacity="1">
    <title>SOURCES</title>
    <g id="SOURCES_Calque_2">
      <title>Calque 2</title>
      <g id="Graphic_9951">
        <path d="M -111.04302 -3675.243 L -94.72302 -3675.243 C -92.60224 -3675.243 -90.88302 -3673.5236 -90.88302 -3671.403 L -90.88302 -3655.083 C -90.88302 -3652.962 -92.60224 -3651.243 -94.72302 -3651.243 L -111.04302 -3651.243 C -113.16379 -3651.243 -114.88302 -3652.962 -114.88302 -3655.083 L -114.88302 -3671.403 C -114.88302 -3673.5236 -113.16379 -3675.243 -111.04302 -3675.243 Z" fill="white"/>
        <path d="M -111.04302 -3675.243 L -94.72302 -3675.243 C -92.60224 -3675.243 -90.88302 -3673.5236 -90.88302 -3671.403 L -90.88302 -3655.083 C -90.88302 -3652.962 -92.60224 -3651.243 -94.72302 -3651.243 L -111.04302 -3651.243 C -113.16379 -3651.243 -114.88302 -3652.962 -114.88302 -3655.083 L -114.88302 -3671.403 C -114.88302 -3673.5236 -113.16379 -3675.243 -111.04302 -3675.243 Z" stroke="black" stroke-linecap="round" stroke-linejoin="round" stroke-width=".25"/>
      </g>
      <g id="Group_9952">
        <title>indent-left</title>
        <g id="Graphic_9953">
          <path d="M -110.4386 -3668.1317 C -110.68749 -3668.1317 -110.88305 -3668.3273 -110.88305 -3668.576 C -110.88305 -3668.825 -110.68749 -3669.0206 -110.4386 -3669.0206 L -95.32743 -3669.0206 C -95.07854 -3669.0206 -94.88299 -3668.825 -94.88299 -3668.576 C -94.88299 -3668.3273 -95.07854 -3668.1317 -95.32743 -3668.1317 Z M -104.21636 -3664.576 C -104.46525 -3664.576 -104.6608 -3664.7717 -104.6608 -3665.0206 C -104.6608 -3665.2695 -104.46525 -3665.465 -104.21636 -3665.465 L -95.32743 -3665.465 C -95.07854 -3665.465 -94.88299 -3665.2695 -94.88299 -3665.0206 C -94.88299 -3664.7717 -95.07854 -3664.576 -95.32743 -3664.576 Z M -104.21636 -3661.0206 C -104.46525 -3661.0206 -104.6608 -3661.216 -104.6608 -3661.465 C -104.6608 -3661.714 -104.46525 -3661.9095 -104.21636 -3661.9095 L -95.32743 -3661.9095 C -95.07854 -3661.9095 -94.88299 -3661.714 -94.88299 -3661.465 C -94.88299 -3661.216 -95.07854 -3661.0206 -95.32743 -3661.0206 Z M -110.4386 -3657.465 C -110.68749 -3657.465 -110.88305 -3657.6606 -110.88305 -3657.9094 C -110.88305 -3658.1583 -110.68749 -3658.354 -110.4386 -3658.354 L -95.32743 -3658.354 C -95.07854 -3658.354 -94.88299 -3658.1583 -94.88299 -3657.9094 C -94.88299 -3657.6606 -95.07854 -3657.465 -95.32743 -3657.465 Z M -110.88305 -3665.9095 C -110.88305 -3666.274 -110.46527 -3666.4873 -110.17193 -3666.265 L -106.61637 -3663.5984 C -106.37636 -3663.4206 -106.37636 -3663.065 -106.61637 -3662.8872 L -110.17193 -3660.2206 C -110.46527 -3659.9983 -110.88305 -3660.2117 -110.88305 -3660.576 Z M -109.99416 -3665.0206 L -109.99416 -3661.465 L -107.62081 -3663.243 Z" fill="#5c75a0"/>
        </g>
      </g>
    </g>
  </g>
</svg>
